X:1
T:The Wanton Seed
M:4/4
L:1/8
K:G
 z4 z2 D2| D2 F2 A2B-A| G2 F2 D3 D| G2 F2 G2A-B| c2 d2 A2B-c| d2 gg gg dB|\
 cc de d2G-B| d3 d A3/2 B/2 cA| B2 G2 G2 B2| c2 c2 A2B-c| d3 d A3/2 B/2 cA|\
 B2 G2 G2 z2|
